Catalina-light/actions/16/combined_fragment.svg

<svg viewBox="0 0 16 16" xmlns="http://www.w3.org/2000/svg">
<defs>
<style id="current-color-scheme" type="text/css">.ColorScheme-Text {
        color:#363636;
      }</style>
</defs>
<path class="ColorScheme-Text" d="m2 4v8h12v-8h-12zm1 1h3v2h-3v-2zm4 0h6v6h-10v-3h4v-1-2z" fill="#363636"/>
</svg>

<svg xmlns="http://www.w3.org/2000/svg" viewBox="0 0 16 16">
  <defs id="defs3051">
    <style type="text/css" id="current-color-scheme">
      .ColorScheme-Text {
        color:#363636;
      }
      </style>
  </defs>
 <path style="fill:currentColor;fill-opacity:1;stroke:none" 
     d="M 2 4 L 2 12 L 14 12 L 14 4 L 2 4 z M 3 5 L 6 5 L 6 7 L 3 7 L 3 5 z M 7 5 L 13 5 L 13 11 L 3 11 L 3 8 L 7 8 L 7 7 L 7 5 z "
     class="ColorScheme-Text"
     />
</svg>
